X:183
T:McKenzie River Reel
M:4/4
L:1/8
C:Becky Dorsey
R:Reel
K:A
"A"AcBc Acc2|"E"ecBc "A"A2ag|"D"fgfe "A/C#"cBce|"Bmi"(3fga)"A/C#"ge "D"f
3g|
"A"a2ga faec|"D"dfec "E"B2cd|"A"e2ec "Bmi"dcBA|1 "D"AcBA "E"F2EF:|2 "A"A
cBA "D"F2GA||
"E"BEE2 BEdB|"A"cA "E"BG "A"ABcd|efec "Bmi"dBcA|"E"BAGF E2GA|
"E"BEE2 BEdB|"A"cA "E"BG "A"ABcd|eaga "F#mi"faec|1 "E"BABc "A"A2GA:|2 "E
"BABc "A"A2EF:|
